X: 438
T: A Tune For Dave
R: reel
M: 4/4
K: Gmajor
DGGF G2BG|AD~D2 ABcA|DGGF GABG|1 AGFA G3F:|2 cAFA G3F||
d3c BcdB|AD~D2 ABcA|dBcA BcdB|1 AGFA G3F:|2 cAFA G4||

